X:26
T:Gubbdansen
R:polska
S:Uppt. efter »[[!Florsen]]» i Burs.
H:Alla gubbar blevo såsom unga pojkar, då de fingo höra denna »låt» spelas upp i ett »lag».
N:Långsamt tempo.
B:Gotlandstoner nr 271
D:Finns inspelad på fonografrulle med [[Personer/August Fredin]] och [[Personer/Lasse I Svarven|Lars Johan Sundell]]
Z:Erik Ronström 2002-10-28
O:Gotland, Burs
M:3/4
L:1/16
K:Dm
f3g f4 {a}a4|a2ba g2ag f2e2|d3e f2g2a2f2|f3e e2^c2 A4::
^c2c2 d2d2 e2e2|f2f2 gfed e2e2|^c2c2 d2d2 e2e2|f2f2 gfed e4| 
a4 b2a2g2f2|f2ef g2f2e2d2|fed^c ^c4 d4:|
(:musicend:)

[[Personer/August Fredin]] spelar på inspelningen första takten så här:
(:music:)
